src/emojis/color/svg/1F9F7.svg

<svg id="emoji" viewBox="0 0 72 72" xmlns="http://www.w3.org/2000/svg">
  <g id="color">
    <path fill="#d0cfce" d="M46.16,18.7415l-.0121.0052a9.819,9.819,0,0,0-3.4891-6.1375l-.3122-.2429a10.1485,10.1485,0,0,0-1.2445-.79l-.3381-.1728c-.0325-.0167-.0651-.0317-.0976-.0459l-.293-.1319a1.7039,1.7039,0,0,0-.2445-.1035l-.2446-.0943a1.7084,1.7084,0,0,0-.1937-.0668V10.96c-.1026-.035-.2078-.07-.3088-.0985l-.0284-.0083v-.0009c-.15-.0467-.3-.0909-.3948-.1118-.1485-.04-.2979-.0785-.4549-.11a1.7882,1.7882,0,0,0-.1778-.0342l-.1151-.0192c-.0843-.0159-.157-.0276-.1661-.0276a3.5448,3.5448,0,0,0-.3556-.0475,9.8622,9.8622,0,0,0-2.2561-.0184c-.1478.0134-.2964.0359-.3773.0509-.0943.0125-.1845.0276-.2738.0434l-.1093.0184a1.6305,1.6305,0,0,0-.192.0384,8.2512,8.2512,0,0,0-.8372.2187c-.2955.0909-.591.1936-.8672.3063a1.5557,1.5557,0,0,0-.1469.0684l-.288.1294c-.0275.0125-.0559.0251-.0835.0384a10.0673,10.0673,0,0,0-1.5942.9691l-.3739.2913a9.76,9.76,0,0,0-3.5508,7.5388c0,.1719.0009.343.0109.5091.0108.1878.0234.3539.0459.53a1.7091,1.7091,0,0,0,1.6927,1.4907,1.4956,1.4956,0,0,0,.7709-.204,1.9,1.9,0,0,0,.9163-1.8242c-.0052-.0618-.0085-.1249-.0128-.1954-.0059-.1018-.005-.2045-.005-.3063a6.3185,6.3185,0,0,1,2.2528-4.8578l.3038-.2371a6.6761,6.6761,0,0,1,1.035-.6277l.2863-.1293c.0351-.0142.07-.03.1043-.0468.1661-.0651.3431-.1244.5326-.1828a5.0481,5.0481,0,0,1,.5467-.141l.04-.0092.3055-.0484c.0576-.01.1144-.0209.2145-.03a6.0031,6.0031,0,0,1,1.4457.0042c.0217.0033.0668.0075.0893.01l.2972.0434c.0509.0092.101.0175.1519.0259.0175.0042.2924.0768.31.08l-.2583-.0685c.09.0158.1745.04.3155.0768.0726.0167.1444.0409.2162.0626.0184.0058.0376.0116.0568.0167.025.0083.0484.015.0692.0208l.2037.07.0075.0025.0559.0217c.0585.0226.1152.0451.1712.0651.0208.01.0417.0192.0626.0276l.545.2621a6.4073,6.4073,0,0,1,.7771.4966l.242.1878a6.35,6.35,0,0,1,2.2469,3.9934.8487.8487,0,0,1-.8426.9579,13.2128,13.2128,0,0,1-4.1189-.625.9363.9363,0,0,0-1.12,1.31c1.1967,2.3642,3.7338,5.6909,8.3158,4.8434a1.6044,1.6044,0,0,0,1.28-1.5618A39.8069,39.8069,0,0,0,46.16,18.7415Z"/>
    <ellipse cx="36.4891" cy="57.3056" rx="4.7249" ry="4.7009" fill="#d0cfce"/>
  </g>
  <g id="line">
    <path fill="none" stroke="#000" stroke-linecap="round" stroke-linejoin="round" stroke-width="2" d="M41.1433,58.223s7.4435-25.2046,10.4789-35.0066"/>
    <path fill="none" stroke="#000" stroke-miterlimit="10" stroke-width="2" d="M26.7958,21.234C27.471,28.5161,31.7681,57.73,31.7681,57.73"/>
    <ellipse cx="36.4891" cy="57.3056" rx="4.7249" ry="4.7009" fill="none" stroke="#000" stroke-miterlimit="10" stroke-width="2"/>
    <ellipse cx="36.5102" cy="57.3056" rx="1.667" ry="1.6755" fill="none" stroke="#000" stroke-miterlimit="10" stroke-width="2"/>
    <path fill="none" stroke="#000" stroke-miterlimit="10" stroke-width="2" d="M46.16,18.7415l-.0121.0052a9.819,9.819,0,0,0-3.4891-6.1375l-.3122-.2429a10.1485,10.1485,0,0,0-1.2445-.79l-.3381-.1728c-.0325-.0167-.0651-.0317-.0976-.0459l-.293-.1319a1.7039,1.7039,0,0,0-.2445-.1035l-.2446-.0943a1.7084,1.7084,0,0,0-.1937-.0668V10.96c-.1026-.035-.2078-.07-.3088-.0985l-.0284-.0083v-.0009c-.15-.0467-.3-.0909-.3948-.1118-.1485-.04-.2979-.0785-.4549-.11a1.7882,1.7882,0,0,0-.1778-.0342l-.1151-.0192c-.0843-.0159-.157-.0276-.1661-.0276a3.5448,3.5448,0,0,0-.3556-.0475,9.8622,9.8622,0,0,0-2.2561-.0184c-.1478.0134-.2964.0359-.3773.0509-.0943.0125-.1845.0276-.2738.0434l-.1093.0184a1.6305,1.6305,0,0,0-.192.0384,8.2512,8.2512,0,0,0-.8372.2187c-.2955.0909-.591.1936-.8672.3063a1.5557,1.5557,0,0,0-.1469.0684l-.288.1294c-.0275.0125-.0559.0251-.0835.0384a10.0673,10.0673,0,0,0-1.5942.9691l-.3739.2913a9.76,9.76,0,0,0-3.5508,7.5388c0,.1719.0009.343.0109.5091.0108.1878.0234.3539.0459.53a1.7091,1.7091,0,0,0,1.6927,1.4907,1.4956,1.4956,0,0,0,.7709-.204,1.9,1.9,0,0,0,.9163-1.8242c-.0052-.0618-.0085-.1249-.0128-.1954-.0059-.1018-.005-.2045-.005-.3063a6.3185,6.3185,0,0,1,2.2528-4.8578l.3038-.2371a6.6761,6.6761,0,0,1,1.035-.6277l.2863-.1293c.0351-.0142.07-.03.1043-.0468.1661-.0651.3431-.1244.5326-.1828a5.0481,5.0481,0,0,1,.5467-.141l.04-.0092.3055-.0484c.0576-.01.1144-.0209.2145-.03a6.0031,6.0031,0,0,1,1.4457.0042c.0217.0033.0668.0075.0893.01l.2972.0434c.0509.0092.101.0175.1519.0259.0175.0042.2924.0768.31.08l-.2583-.0685c.09.0158.1745.04.3155.0768.0726.0167.1444.0409.2162.0626.0184.0058.0376.0116.0568.0167.025.0083.0484.015.0692.0208l.2037.07.0075.0025.0559.0217c.0585.0226.1152.0451.1712.0651.0208.01.0417.0192.0626.0276l.545.2621a6.4073,6.4073,0,0,1,.7771.4966l.242.1878a6.35,6.35,0,0,1,2.2469,3.9934.8487.8487,0,0,1-.8426.9579,13.2128,13.2128,0,0,1-4.1189-.625.9363.9363,0,0,0-1.12,1.31c1.1967,2.3642,3.7338,5.6909,8.3158,4.8434a1.6044,1.6044,0,0,0,1.28-1.5618A39.8069,39.8069,0,0,0,46.16,18.7415Z"/>
    <path fill="none" stroke="#000" stroke-miterlimit="10" stroke-width="2" d="M46.16,18.7415l-.0121.0052a9.819,9.819,0,0,0-3.4891-6.1375l-.3122-.2429a10.1485,10.1485,0,0,0-1.2445-.79l-.3381-.1728c-.0325-.0167-.0651-.0317-.0976-.0459l-.293-.1319a1.7039,1.7039,0,0,0-.2445-.1035l-.2446-.0943a1.7084,1.7084,0,0,0-.1937-.0668V10.96c-.1026-.035-.2078-.07-.3088-.0985l-.0284-.0083v-.0009c-.15-.0467-.3-.0909-.3948-.1118-.1485-.04-.2979-.0785-.4549-.11a1.7882,1.7882,0,0,0-.1778-.0342l-.1151-.0192c-.0843-.0159-.157-.0276-.1661-.0276a3.5448,3.5448,0,0,0-.3556-.0475,9.8622,9.8622,0,0,0-2.2561-.0184c-.1478.0134-.2964.0359-.3773.0509-.0943.0125-.1845.0276-.2738.0434l-.1093.0184a1.6305,1.6305,0,0,0-.192.0384,8.2512,8.2512,0,0,0-.8372.2187c-.2955.0909-.591.1936-.8672.3063a1.5557,1.5557,0,0,0-.1469.0684l-.288.1294c-.0275.0125-.0559.0251-.0835.0384a10.0673,10.0673,0,0,0-1.5942.9691l-.3739.2913a9.76,9.76,0,0,0-3.5508,7.5388c0,.1719.0009.343.0109.5091.0108.1878.0234.3539.0459.53a1.7091,1.7091,0,0,0,1.6927,1.4907,1.4956,1.4956,0,0,0,.7709-.204,1.9,1.9,0,0,0,.9163-1.8242c-.0052-.0618-.0085-.1249-.0128-.1954-.0059-.1018-.005-.2045-.005-.3063a6.3185,6.3185,0,0,1,2.2528-4.8578l.3038-.2371a6.6761,6.6761,0,0,1,1.035-.6277l.2863-.1293c.0351-.0142.07-.03.1043-.0468.1661-.0651.3431-.1244.5326-.1828a5.0481,5.0481,0,0,1,.5467-.141l.04-.0092.3055-.0484c.0576-.01.1144-.0209.2145-.03a6.0031,6.0031,0,0,1,1.4457.0042c.0217.0033.0668.0075.0893.01l.2972.0434c.0509.0092.101.0175.1519.0259.0175.0042.2924.0768.31.08l-.2583-.0685c.09.0158.1745.04.3155.0768.0726.0167.1444.0409.2162.0626.0184.0058.0376.0116.0568.0167.025.0083.0484.015.0692.0208l.2037.07.0075.0025.0559.0217c.0585.0226.1152.0451.1712.0651.0208.01.0417.0192.0626.0276l.545.2621a6.4073,6.4073,0,0,1,.7771.4966l.242.1878a6.35,6.35,0,0,1,2.2469,3.9934.8487.8487,0,0,1-.8426.9579,13.2128,13.2128,0,0,1-4.1189-.625.9363.9363,0,0,0-1.12,1.31c1.1967,2.3642,3.7338,5.6909,8.3158,4.8434a1.6044,1.6044,0,0,0,1.28-1.5618A39.8069,39.8069,0,0,0,46.16,18.7415Z"/>
    <path fill="none" stroke="#000" stroke-miterlimit="10" stroke-width="2" d="M46.16,18.7415l-.0121.0052a9.819,9.819,0,0,0-3.4891-6.1375l-.3122-.2429a10.1485,10.1485,0,0,0-1.2445-.79l-.3381-.1728c-.0325-.0167-.0651-.0317-.0976-.0459l-.293-.1319a1.7039,1.7039,0,0,0-.2445-.1035l-.2446-.0943a1.7084,1.7084,0,0,0-.1937-.0668V10.96c-.1026-.035-.2078-.07-.3088-.0985l-.0284-.0083v-.0009c-.15-.0467-.3-.0909-.3948-.1118-.1485-.04-.2979-.0785-.4549-.11a1.7882,1.7882,0,0,0-.1778-.0342l-.1151-.0192c-.0843-.0159-.157-.0276-.1661-.0276a3.5448,3.5448,0,0,0-.3556-.0475,9.8622,9.8622,0,0,0-2.2561-.0184c-.1478.0134-.2964.0359-.3773.0509-.0943.0125-.1845.0276-.2738.0434l-.1093.0184a1.6305,1.6305,0,0,0-.192.0384,8.2512,8.2512,0,0,0-.8372.2187c-.2955.0909-.591.1936-.8672.3063a1.5557,1.5557,0,0,0-.1469.0684l-.288.1294c-.0275.0125-.0559.0251-.0835.0384a10.0673,10.0673,0,0,0-1.5942.9691l-.3739.2913a9.76,9.76,0,0,0-3.5508,7.5388c0,.1719.0009.343.0109.5091.0108.1878.0234.3539.0459.53a1.7091,1.7091,0,0,0,1.6927,1.4907,1.4956,1.4956,0,0,0,.7709-.204,1.9,1.9,0,0,0,.9163-1.8242c-.0052-.0618-.0085-.1249-.0128-.1954-.0059-.1018-.005-.2045-.005-.3063a6.3185,6.3185,0,0,1,2.2528-4.8578l.3038-.2371a6.6761,6.6761,0,0,1,1.035-.6277l.2863-.1293c.0351-.0142.07-.03.1043-.0468.1661-.0651.3431-.1244.5326-.1828a5.0481,5.0481,0,0,1,.5467-.141l.04-.0092.3055-.0484c.0576-.01.1144-.0209.2145-.03a6.0031,6.0031,0,0,1,1.4457.0042c.0217.0033.0668.0075.0893.01l.2972.0434c.0509.0092.101.0175.1519.0259.0175.0042.2924.0768.31.08l-.2583-.0685c.09.0158.1745.04.3155.0768.0726.0167.1444.0409.2162.0626.0184.0058.0376.0116.0568.0167.025.0083.0484.015.0692.0208l.2037.07.0075.0025.0559.0217c.0585.0226.1152.0451.1712.0651.0208.01.0417.0192.0626.0276l.545.2621a6.4073,6.4073,0,0,1,.7771.4966l.242.1878a6.35,6.35,0,0,1,2.2469,3.9934.8487.8487,0,0,1-.8426.9579,13.2128,13.2128,0,0,1-4.1189-.625.9363.9363,0,0,0-1.12,1.31c1.1967,2.3642,3.7338,5.6909,8.3158,4.8434a1.6044,1.6044,0,0,0,1.28-1.5618A39.8069,39.8069,0,0,0,46.16,18.7415Z"/>
    <path fill="none" stroke="#000" stroke-miterlimit="10" stroke-width="2" d="M46.16,18.7415l-.0121.0052a9.819,9.819,0,0,0-3.4891-6.1375l-.3122-.2429a10.1485,10.1485,0,0,0-1.2445-.79l-.3381-.1728c-.0325-.0167-.0651-.0317-.0976-.0459l-.293-.1319a1.7039,1.7039,0,0,0-.2445-.1035l-.2446-.0943a1.7084,1.7084,0,0,0-.1937-.0668V10.96c-.1026-.035-.2078-.07-.3088-.0985l-.0284-.0083v-.0009c-.15-.0467-.3-.0909-.3948-.1118-.1485-.04-.2979-.0785-.4549-.11a1.7882,1.7882,0,0,0-.1778-.0342l-.1151-.0192c-.0843-.0159-.157-.0276-.1661-.0276a3.5448,3.5448,0,0,0-.3556-.0475,9.8622,9.8622,0,0,0-2.2561-.0184c-.1478.0134-.2964.0359-.3773.0509-.0943.0125-.1845.0276-.2738.0434l-.1093.0184a1.6305,1.6305,0,0,0-.192.0384,8.2512,8.2512,0,0,0-.8372.2187c-.2955.0909-.591.1936-.8672.3063a1.5557,1.5557,0,0,0-.1469.0684l-.288.1294c-.0275.0125-.0559.0251-.0835.0384a10.0673,10.0673,0,0,0-1.5942.9691l-.3739.2913a9.76,9.76,0,0,0-3.5508,7.5388c0,.1719.0009.343.0109.5091.0108.1878.0234.3539.0459.53a1.7091,1.7091,0,0,0,1.6927,1.4907,1.4956,1.4956,0,0,0,.7709-.204,1.9,1.9,0,0,0,.9163-1.8242c-.0052-.0618-.0085-.1249-.0128-.1954-.0059-.1018-.005-.2045-.005-.3063a6.3185,6.3185,0,0,1,2.2528-4.8578l.3038-.2371a6.6761,6.6761,0,0,1,1.035-.6277l.2863-.1293c.0351-.0142.07-.03.1043-.0468.1661-.0651.3431-.1244.5326-.1828a5.0481,5.0481,0,0,1,.5467-.141l.04-.0092.3055-.0484c.0576-.01.1144-.0209.2145-.03a6.0031,6.0031,0,0,1,1.4457.0042c.0217.0033.0668.0075.0893.01l.2972.0434c.0509.0092.101.0175.1519.0259.0175.0042.2924.0768.31.08l-.2583-.0685c.09.0158.1745.04.3155.0768.0726.0167.1444.0409.2162.0626.0184.0058.0376.0116.0568.0167.025.0083.0484.015.0692.0208l.2037.07.0075.0025.0559.0217c.0585.0226.1152.0451.1712.0651.0208.01.0417.0192.0626.0276l.545.2621a6.4073,6.4073,0,0,1,.7771.4966l.242.1878a6.35,6.35,0,0,1,2.2469,3.9934.8487.8487,0,0,1-.8426.9579,13.2128,13.2128,0,0,1-4.1189-.625.9363.9363,0,0,0-1.12,1.31c1.1967,2.3642,3.7338,5.6909,8.3158,4.8434a1.6044,1.6044,0,0,0,1.28-1.5618A39.8069,39.8069,0,0,0,46.16,18.7415Z"/>
    <path fill="none" stroke="#000" stroke-miterlimit="10" stroke-width="2" d="M46.16,18.7415l-.0121.0052a9.819,9.819,0,0,0-3.4891-6.1375l-.3122-.2429a10.1485,10.1485,0,0,0-1.2445-.79l-.3381-.1728c-.0325-.0167-.0651-.0317-.0976-.0459l-.293-.1319a1.7039,1.7039,0,0,0-.2445-.1035l-.2446-.0943a1.7084,1.7084,0,0,0-.1937-.0668V10.96c-.1026-.035-.2078-.07-.3088-.0985l-.0284-.0083v-.0009c-.15-.0467-.3-.0909-.3948-.1118-.1485-.04-.2979-.0785-.4549-.11a1.7882,1.7882,0,0,0-.1778-.0342l-.1151-.0192c-.0843-.0159-.157-.0276-.1661-.0276a3.5448,3.5448,0,0,0-.3556-.0475,9.8622,9.8622,0,0,0-2.2561-.0184c-.1478.0134-.2964.0359-.3773.0509-.0943.0125-.1845.0276-.2738.0434l-.1093.0184a1.6305,1.6305,0,0,0-.192.0384,8.2512,8.2512,0,0,0-.8372.2187c-.2955.0909-.591.1936-.8672.3063a1.5557,1.5557,0,0,0-.1469.0684l-.288.1294c-.0275.0125-.0559.0251-.0835.0384a10.0673,10.0673,0,0,0-1.5942.9691l-.3739.2913a9.76,9.76,0,0,0-3.5508,7.5388c0,.1719.0009.343.0109.5091.0108.1878.0234.3539.0459.53.111.8622,0,1.7463,1.6927,1.4907a1.9863,1.9863,0,0,0,.7709-.204,1.9,1.9,0,0,0,.9163-1.8242c-.0052-.0618-.0085-.1249-.0128-.1954-.0059-.1018-.005-.2045-.005-.3063a6.3185,6.3185,0,0,1,2.2528-4.8578l.3038-.2371a6.6761,6.6761,0,0,1,1.035-.6277l.2863-.1293c.0351-.0142.07-.03.1043-.0468.1661-.0651.3431-.1244.5326-.1828a5.0481,5.0481,0,0,1,.5467-.141l.04-.0092.3055-.0484c.0576-.01.1144-.0209.2145-.03a6.0031,6.0031,0,0,1,1.4457.0042c.0217.0033.0668.0075.0893.01l.2972.0434c.0509.0092.101.0175.1519.0259.0175.0042.2924.0768.31.08l-.2583-.0685c.09.0158.1745.04.3155.0768.0726.0167.1444.0409.2162.0626.0184.0058.0376.0116.0568.0167.025.0083.0484.015.0692.0208l.2037.07.0075.0025.0559.0217c.0585.0226.1152.0451.1712.0651.0208.01.0417.0192.0626.0276l.545.2621a6.4073,6.4073,0,0,1,.7771.4966l.242.1878a6.35,6.35,0,0,1,2.2469,3.9934.8487.8487,0,0,1-.8426.9579,13.2128,13.2128,0,0,1-4.1189-.625.9363.9363,0,0,0-1.12,1.31c1.1967,2.3642,3.7338,5.6909,8.3158,4.8434a1.6044,1.6044,0,0,0,1.28-1.5618A39.8069,39.8069,0,0,0,46.16,18.7415Z"/>
  </g>
</svg>

<svg id="emoji" viewBox="0 0 72 72" xmlns="http://www.w3.org/2000/svg">
  <g id="color">
    <path fill="#d0cfce" d="M46.16,18.741 C45.786,16.339 44.543,14.152 42.659,12.609 L42.347,12.366 C41.951,12.073 41.536,11.809 41.102,11.576 L40.764,11.403 C40.731,11.387 40.699,11.372 40.666,11.358 L40.373,11.226 C40.295,11.185 40.213,11.15 40.129,11.122 L39.884,11.028 C39.821,11.002 39.756,10.979 39.691,10.961 L39.691,10.96 C39.588,10.925 39.483,10.89 39.382,10.861 L39.353,10.853 L39.353,10.852 C39.203,10.806 39.053,10.761 38.959,10.74 C38.81,10.7 38.661,10.662 38.504,10.63 C38.445,10.616 38.386,10.605 38.326,10.596 L38.211,10.577 C38.126,10.561 38.054,10.549 38.045,10.549 C37.927,10.528 37.808,10.512 37.689,10.502 C36.94,10.41 36.183,10.403 35.433,10.484 C35.285,10.497 35.137,10.519 35.056,10.535 C34.961,10.547 34.871,10.562 34.782,10.578 L34.673,10.596 C34.608,10.605 34.544,10.618 34.481,10.635 C34.198,10.693 33.918,10.766 33.643,10.853 C33.348,10.944 33.052,11.047 32.776,11.16 C32.726,11.18 32.677,11.203 32.629,11.228 L32.341,11.358 C32.314,11.37 32.285,11.383 32.258,11.396 C31.698,11.669 31.164,11.993 30.664,12.365 L30.29,12.656 C28.039,14.512 26.736,17.278 26.739,20.195 C26.739,20.367 26.74,20.538 26.75,20.704 C26.761,20.892 26.773,21.058 26.796,21.234 C26.905,22.086 27.63,22.724 28.488,22.725 C28.759,22.728 29.026,22.657 29.259,22.521 C29.893,22.142 30.251,21.431 30.176,20.697 C30.17,20.635 30.167,20.572 30.163,20.501 C30.157,20.399 30.158,20.297 30.158,20.195 C30.152,18.322 30.977,16.542 32.411,15.337 L32.714,15.1 C33.04,14.86 33.386,14.65 33.749,14.472 L34.036,14.343 C34.071,14.329 34.106,14.313 34.14,14.296 C34.306,14.231 34.483,14.172 34.673,14.113 C34.852,14.056 35.035,14.009 35.219,13.972 L35.259,13.963 L35.565,13.915 C35.622,13.905 35.679,13.894 35.779,13.885 C36.26,13.828 36.745,13.829 37.225,13.889 C37.247,13.892 37.292,13.897 37.314,13.899 L37.611,13.943 C37.662,13.952 37.713,13.96 37.763,13.968 C37.781,13.973 38.056,14.045 38.073,14.048 L37.815,13.98 C37.905,13.996 37.99,14.02 38.131,14.057 C38.203,14.073 38.275,14.098 38.347,14.119 C38.365,14.125 38.384,14.131 38.404,14.136 C38.429,14.144 38.452,14.151 38.473,14.157 L38.677,14.227 L38.684,14.229 L38.74,14.251 C38.798,14.274 38.855,14.296 38.911,14.316 C38.932,14.326 38.953,14.335 38.974,14.344 L39.519,14.606 C39.789,14.752 40.049,14.918 40.296,15.102 L40.538,15.29 C41.758,16.295 42.559,17.719 42.785,19.284 C42.816,19.526 42.742,19.77 42.58,19.953 C42.419,20.137 42.186,20.242 41.942,20.241 C40.545,20.252 39.154,20.041 37.823,19.616 C37.465,19.503 37.074,19.615 36.83,19.901 C36.586,20.186 36.536,20.59 36.703,20.927 C37.9,23.291 40.437,26.617 45.019,25.77 C45.761,25.617 46.295,24.966 46.299,24.208 C46.378,22.385 46.332,20.558 46.16,18.741 z"/>
    <ellipse cx="36.4891" cy="57.3056" rx="4.7249" ry="4.7009" fill="#d0cfce"/>
  </g>
  <g id="line">
    <path fill="none" stroke="#000" stroke-linecap="round" stroke-linejoin="round" stroke-width="2" d="M41.1433,58.223s7.4435-25.2046,10.4789-35.0066"/>
    <path fill="none" stroke="#000" stroke-miterlimit="10" stroke-width="2" d="M26.7958,21.234C27.471,28.5161,31.7681,57.73,31.7681,57.73"/>
    <ellipse cx="36.4891" cy="57.3056" rx="4.7249" ry="4.7009" fill="none" stroke="#000" stroke-miterlimit="10" stroke-width="2"/>
    <ellipse cx="36.5102" cy="57.3056" rx="1.667" ry="1.6755" fill="none" stroke="#000" stroke-miterlimit="10" stroke-width="2"/>
    <path fill="none" stroke="#000000" stroke-miterlimit="10" stroke-width="2" d="M26.739,20.195 C26.739,20.367 26.74,20.538 26.75,20.704 C26.761,20.892 26.773,21.058 26.796,21.234 C26.905,22.086 27.63,22.724 28.488,22.725"/>
    <path fill="none" stroke="#000000" stroke-miterlimit="10" stroke-width="2" d="M46.16,18.741 C45.786,16.339 44.543,14.152 42.659,12.609 L42.347,12.366 C41.951,12.073 41.536,11.809 41.102,11.576 L40.764,11.403 C40.732,11.387 40.699,11.372 40.666,11.358 L40.373,11.226 C40.295,11.185 40.213,11.15 40.129,11.122 L39.884,11.028 C39.821,11.002 39.756,10.979 39.691,10.961 L39.691,10.96 C39.588,10.925 39.483,10.89 39.382,10.861 L39.353,10.853 L39.353,10.852 C39.203,10.806 39.053,10.761 38.959,10.74 C38.81,10.7 38.661,10.662 38.504,10.63 C38.445,10.616 38.386,10.605 38.326,10.596 L38.211,10.577 C38.127,10.561 38.054,10.549 38.045,10.549 C37.927,10.528 37.808,10.512 37.689,10.502 C36.94,10.41 36.183,10.403 35.433,10.484 C35.285,10.497 35.137,10.519 35.056,10.534 C34.961,10.547 34.871,10.562 34.782,10.578 L34.673,10.596 C34.608,10.605 34.544,10.618 34.481,10.635 C34.198,10.693 33.918,10.766 33.643,10.853 C33.348,10.944 33.052,11.047 32.776,11.16 C32.726,11.18 32.677,11.203 32.629,11.228 L32.341,11.357 C32.314,11.37 32.285,11.383 32.258,11.396 C31.698,11.669 31.164,11.993 30.664,12.365 L30.29,12.656 C28.039,14.512 26.736,17.278 26.739,20.195 C26.739,20.367 26.74,20.538 26.75,20.704 C26.761,20.892 26.773,21.058 26.796,21.234 C26.907,22.096 26.796,22.98 28.488,22.725 C28.757,22.71 29.019,22.64 29.259,22.521 C29.893,22.142 30.251,21.431 30.176,20.697 C30.17,20.635 30.167,20.572 30.163,20.501 C30.157,20.399 30.158,20.297 30.158,20.195 C30.152,18.322 30.977,16.542 32.411,15.337 L32.714,15.1 C33.04,14.86 33.386,14.65 33.749,14.472 L34.036,14.343 C34.071,14.329 34.106,14.313 34.14,14.296 C34.306,14.231 34.483,14.172 34.673,14.113 C34.852,14.056 35.035,14.009 35.219,13.972 L35.259,13.963 L35.565,13.915 C35.622,13.905 35.679,13.894 35.779,13.885 C36.26,13.828 36.745,13.829 37.225,13.889 C37.247,13.892 37.292,13.897 37.314,13.899 L37.611,13.942 C37.662,13.952 37.713,13.96 37.763,13.968 C37.781,13.973 38.056,14.045 38.073,14.048 L37.815,13.98 C37.905,13.996 37.99,14.02 38.131,14.057 C38.203,14.073 38.275,14.098 38.347,14.119 C38.365,14.125 38.384,14.131 38.404,14.136 C38.429,14.144 38.452,14.151 38.473,14.157 L38.677,14.227 L38.684,14.229 L38.74,14.251 C38.798,14.274 38.855,14.296 38.911,14.316 C38.932,14.326 38.953,14.335 38.974,14.344 L39.519,14.606 C39.789,14.752 40.049,14.918 40.296,15.102 L40.538,15.29 C41.758,16.295 42.559,17.719 42.785,19.284 C42.816,19.526 42.742,19.77 42.58,19.953 C42.419,20.137 42.186,20.242 41.942,20.241 C40.545,20.252 39.154,20.041 37.823,19.616 C37.465,19.503 37.074,19.615 36.83,19.901 C36.586,20.186 36.536,20.59 36.703,20.926 C37.9,23.291 40.437,26.617 45.019,25.77 C45.761,25.617 46.295,24.966 46.299,24.208 C46.378,22.385 46.332,20.558 46.16,18.741 z"/>
  </g>
</svg>
